X:1
T: A Trip to Canterbury
N:
C:
S:
A:
O:
R:
M:6/8
K:G
I:speed 150
%W:           A1                                            A2
% voice 1 (1 lines, 47 notes)
K:G
M:6/8
L:1/16
D2 |D3 E F2 G3 A B2 c3 e d2 c2 B2 A2 B2 G2 E2 D2 G2 G2 B3 c A2 G4 D2 |D3 E F2 G3 A B2 c3 e d2 c2 B2 A2 B2 G2 E2 D2 G2 G2 B3 c A2 G4 c2 |
%W:         B1
% voice 1 (1 lines, 43 notes)
B4 c2 d6 e4 c2 d2 B2 G2 B3 c d2 e3 f g2 G2 A2 G2 F2 E2 D2 |C2 e2 c2 B,2 d2 B2 A3 G A2 B3 G E2 G2 F2 E2 D2 d2 c2 B3 c A2 G4 c2 |
%W:         B2
% voice 1 (1 lines, 42 notes)
B4 c2 d6 e4 c2 d2 B2 G2 B3 c d2 e3 f g2 G2 A2 G2 F2 E2 D2 |C2 e2 c2 B,2 d2 B2 A3 G A2 B3 G E2 G2 F2 E2 D2 d2 c2 B3 c A2 G4 ||
